_icons/SVG/529-drilbur-shiny.svg

<svg xmlns="http://www.w3.org/2000/svg" viewBox="0 0 32 32"><title>529-drilbur-shiny</title><path d="M20.56543,25.41487c-.74952.28437-1.016,1.41409-.59515,2.52332s1.36955,1.778,2.11907,1.49369,1.0159-1.41409.59509-2.52332S21.31489,25.13057,20.56543,25.41487Z" style="fill:#413b3b"/><path d="M16,24.70667h4.53687l3.05194-2.44581a11.18293,11.18293,0,0,0-.48084-2.12573L16,23.12213Z" style="fill:#4f4949"/><path d="M21.04706,15.69592C20.291,10.03461,19.96326,7.78448,16,7.78448V19.71484l5.75537-2.741C21.5376,16.55859,21.306,16.13513,21.04706,15.69592Z" style="fill:#4f4949"/><path d="M23.108,20.13513a19.86872,19.86872,0,0,0-1.3526-3.16125L16,19.71484v3.40729Z" style="fill:#dd7c8a"/><path d="M16,24.70667v2.46856c1.133,0,4.66412-.04657,5.68323-.53448,1.42474-.68207,2.15381-2.164,1.90558-4.37989l-3.05194,2.44581Z" style="fill:#dd7c8a"/><path d="M19.18086,14.372c0-2.347-1.42408-4.24968-3.18086-4.24968v8.49929C17.43355,18.16287,18.59828,16.54807,19.18086,14.372Z" style="fill:#e3e5e5"/><path d="M17.62859,12.09775c0-.64652-.72915-1.17059-1.62859-1.17059v2.34118C16.89944,13.26834,17.62859,12.74421,17.62859,12.09775Z" style="fill:#b0d3ea"/><path d="M18.12062,15.26592a5.10342,5.10342,0,0,1-2.12062.43v1.91089C16.89944,17.60683,18.12062,15.91238,18.12062,15.26592Z" style="fill:#e08c96"/><path d="M24.173,7.45962c2.51887,1.27429,4.42744,4.09074,4.0484,9.49257C31.01906,12.86048,32.146,6.40659,31.985,2.5027,28.59815,2.612,25.99318,4.843,24.173,7.45962Z" style="fill:#dadddc"/><path d="M24.173,7.45962c-2.27492,3.27038-3.32279,7.14372-3.12588,8.23632l.9091,5.04535c2.64874.02655,4.71309-1.51915,6.26518-3.7891C28.60041,11.55036,26.69184,8.73391,24.173,7.45962Z" style="fill:#5a5353"/><ellipse cx="25.54265" cy="13.63759" rx="1.66919" ry="2.53176" style="fill:#de8490"/><path d="M18.83791,9.903c-.59412,0-1.07578.72277-1.07578,1.61441s.48166,1.61434,1.07578,1.61434,1.07578-.72277,1.07578-1.61434S19.432,9.903,18.83791,9.903Z" style="fill:#f7f7f7"/><path d="M18.63669,10.60155a.40551.40551,0,1,0,.40554.40553A.40554.40554,0,0,0,18.63669,10.60155Z" style="fill:#2b3332"/><path d="M11.43457,25.41487c.74952.28437,1.016,1.41409.59515,2.52332s-1.36955,1.778-2.11907,1.49369-1.0159-1.41409-.59509-2.52332S10.68511,25.13057,11.43457,25.41487Z" style="fill:#4f4949"/><polygon points="16 24.707 16 23.122 12.229 24.707 16 24.707" style="fill:#544c4a"/><path d="M16,7.78448c-3.96326,0-4.291,2.25013-5.04706,7.91144-1.88867,3.20392-2.6579,5.76813-2.57715,7.64984L16,19.71484Z" style="fill:#5a5353"/><path d="M10.31677,26.64075c1.01911.48791,4.55023.53448,5.68323.53448V24.70667H12.22925L16,23.12213V19.71484L8.37579,23.34576A3.54071,3.54071,0,0,0,10.31677,26.64075Z" style="fill:#de8490"/><path d="M12.81914,14.372c0-2.347,1.42408-4.24968,3.18086-4.24968v8.49929C14.56645,18.16287,13.40172,16.54807,12.81914,14.372Z" style="fill:#edeeee"/><path d="M14.37141,12.09775c0-.64652.72915-1.17059,1.62859-1.17059v2.34118C15.10056,13.26834,14.37141,12.74421,14.37141,12.09775Z" style="fill:#c1ddee"/><path d="M13.87938,15.26592a5.10342,5.10342,0,0,0,2.12062.43v1.91089C15.10056,17.60683,13.87938,15.91238,13.87938,15.26592Z" style="fill:#e2959e"/><path d="M7.827,7.45962c-2.51887,1.27429-4.42744,4.09074-4.0484,9.49257C.98094,12.86048-.14595,6.40659.015,2.5027,3.40185,2.612,6.00682,4.843,7.827,7.45962Z" style="fill:#e3e5e5"/><path d="M7.827,7.45962c2.27492,3.27038,3.32279,7.14372,3.12588,8.23632l-.9091,5.04535c-2.64874.02655-4.71309-1.51915-6.26518-3.7891C3.39959,11.55036,5.30816,8.73391,7.827,7.45962Z" style="fill:#635c5c"/><ellipse cx="6.45735" cy="13.63759" rx="1.66919" ry="2.53176" style="fill:#e08c96"/><path d="M13.16209,9.903c.59412,0,1.07578.72277,1.07578,1.61441s-.48166,1.61434-1.07578,1.61434-1.07578-.72277-1.07578-1.61434S12.568,9.903,13.16209,9.903Z" style="fill:#fff"/><path d="M13.36331,10.60155a.40551.40551,0,1,1-.40554.40553A.40554.40554,0,0,1,13.36331,10.60155Z" style="fill:#373f3f"/></svg>

<svg xmlns="http://www.w3.org/2000/svg" viewBox="0 0 32 32"><path d="M20.565 25.415c-.75.284-1.016 1.414-.595 2.523s1.37 1.778 2.12 1.494 1.015-1.414.594-2.523-1.37-1.778-2.119-1.494z" fill="#413b3b"/><path d="M16 24.707h4.537l3.052-2.446a11.183 11.183 0 00-.481-2.126L16 23.122zm5.047-9.011c-.756-5.661-1.084-7.912-5.047-7.912v11.93l5.755-2.74a28.33 28.33 0 00-.708-1.278z" fill="#4f4949"/><path d="M23.108 20.135a19.869 19.869 0 00-1.353-3.161L16 19.714v3.408zM16 24.707v2.468c1.133 0 4.664-.046 5.683-.534 1.425-.682 2.154-2.164 1.906-4.38l-3.052 2.446z" fill="#dd7c8a"/><path d="M19.18 14.372c0-2.347-1.423-4.25-3.18-4.25v8.5c1.434-.46 2.598-2.074 3.18-4.25z" fill="#e3e5e5"/><path d="M17.629 12.098c0-.647-.73-1.17-1.629-1.17v2.34c.9 0 1.629-.524 1.629-1.17z" fill="#b0d3ea"/><path d="M18.12 15.266a5.103 5.103 0 01-2.12.43v1.91c.9 0 2.12-1.694 2.12-2.34z" fill="#e08c96"/><path d="M24.173 7.46c2.519 1.274 4.427 4.09 4.048 9.492 2.798-4.092 3.925-10.545 3.764-14.45-3.387.11-5.992 2.341-7.812 4.958z" fill="#dadddc"/><path d="M24.173 7.46c-2.275 3.27-3.323 7.143-3.126 8.236l.91 5.045c2.648.027 4.712-1.519 6.264-3.789.38-5.402-1.53-8.218-4.048-9.492z" fill="#5a5353"/><ellipse cx="25.543" cy="13.638" rx="1.669" ry="2.532" fill="#de8490"/><path d="M18.838 9.903c-.594 0-1.076.723-1.076 1.614s.482 1.615 1.076 1.615 1.076-.723 1.076-1.615-.482-1.614-1.076-1.614z" fill="#f7f7f7"/><path d="M18.637 10.602a.406.406 0 10.405.405.406.406 0 00-.405-.405z" fill="#2b3332"/><path d="M11.435 25.415c.75.284 1.016 1.414.595 2.523s-1.37 1.778-2.12 1.494-1.015-1.414-.594-2.523 1.37-1.778 2.119-1.494z" fill="#4f4949"/><path fill="#544c4a" d="M16 24.707v-1.585l-3.771 1.585H16z"/><path d="M16 7.784c-3.963 0-4.291 2.25-5.047 7.912-1.889 3.204-2.658 5.768-2.577 7.65L16 19.715z" fill="#5a5353"/><path d="M10.317 26.64c1.019.489 4.55.535 5.683.535v-2.468h-3.77L16 23.122v-3.407l-7.624 3.63a3.54 3.54 0 001.94 3.296z" fill="#de8490"/><path d="M12.82 14.372c0-2.347 1.423-4.25 3.18-4.25v8.5c-1.434-.46-2.598-2.074-3.18-4.25z" fill="#edeeee"/><path d="M14.371 12.098c0-.647.73-1.17 1.629-1.17v2.34c-.9 0-1.629-.524-1.629-1.17z" fill="#c1ddee"/><path d="M13.88 15.266a5.103 5.103 0 002.12.43v1.91c-.9 0-2.12-1.694-2.12-2.34z" fill="#e2959e"/><path d="M7.827 7.46C5.308 8.734 3.4 11.55 3.779 16.952.98 12.86-.146 6.407.015 2.502c3.387.11 5.992 2.341 7.812 4.958z" fill="#e3e5e5"/><path d="M7.827 7.46c2.275 3.27 3.323 7.143 3.126 8.236l-.91 5.045c-2.648.027-4.712-1.519-6.264-3.789-.38-5.402 1.53-8.218 4.048-9.492z" fill="#635c5c"/><ellipse cx="6.457" cy="13.638" rx="1.669" ry="2.532" fill="#e08c96"/><path d="M13.162 9.903c.594 0 1.076.723 1.076 1.614s-.482 1.615-1.076 1.615-1.076-.723-1.076-1.615.482-1.614 1.076-1.614z" fill="#fff"/><path d="M13.363 10.602a.406.406 0 11-.405.405.406.406 0 01.405-.405z" fill="#373f3f"/></svg>
